X: 2
T: The Robin's Nest/Paddy Fahy's (J-80)
M: 6/8
L: 1/8
R: jig
K: Cmaj
"C"c3 "G"dcB|"C"cGE "C/E"CEG"F"|F3 "Dm"DEF|"G"GAB ced|
"C"c3 "G"dcB|"C"cGE "C/E"CEG|"F"F3 "G"DGF|"C"ECC C3 :|
|:"C"c3 "C/G"g^fg|"C"ea^f "C/E"gec|"Dm"A2 f fef|Adf "G"afd|
"C"c3 "C/G"g^fg| "C"ea^f "C/E"g2 a|"C"gec "G"fdB|"C"cGE C3 :|

